icon-svg/gamecube.svg

<svg xmlns="http://www.w3.org/2000/svg" fill="#44739e" viewBox="0 0 24 24"><path d="m7.681 14.606 3.919 2.262V12.34l-3.922-2.262v4.528zm-1.689.973 5.608 3.235V22l-8.366-4.83V7.513l2.758 1.592ZM12 7.12 8.081 9.384 12 11.647l3.919-2.263L12 7.122Zm0-1.944 4.716 2.732 2.757-1.592L12 2 3.646 6.824 6.4 8.411Zm6 10.4v-3.288l-1.686.973v1.345L12.4 16.871v-4.528l8.366-4.826v9.653L12.4 22v-3.18z"/></svg>

<?xml version="1.0" encoding="UTF-8"?>
<svg width="24px" fill="#44739e" height="24px" viewBox="0 0 24 24" version="1.1" xmlns="http://www.w3.org/2000/svg" xmlns:xlink="http://www.w3.org/1999/xlink">
            <path d="M 7.681,14.606 11.6,16.868 V 12.34 L 7.678,10.078 v 4.528 z M 5.992,15.579 11.6,18.814 V 22 L 3.234,17.17 V 7.513 L 5.992,9.105 Z M 12,7.12 8.081,9.384 12,11.647 15.919,9.384 12,7.122 Z M 12,5.176 16.716,7.908 19.473,6.316 12,2 3.646,6.824 6.4,8.411 Z m 6,10.4 v -3.288 l -1.686,0.973 v 1.345 L 12.4,16.871 V 12.343 L 20.766,7.517 V 17.17 L 12.4,22 v -3.18 z"/>

</svg>
